X: 189
U:~=!turn!
M:C
L:1/8
K:B aeolian
c | BFBc d2 df | (cA)ec aecA | BFBc d2 de | (cA)ec dBB :| c | BbBc defd | cAeA aAec |


